!!!COM:	Bach, Johann Sebastian
!!!OMV:	W&auml;r Gott nicht mit uns diese Zeit
!!!OTL:	W&auml;r Gott nicht mit uns diese Zeit
**kern	**fb	**kern	**kern	**kern	**kern
*part5	*part5	*part4	*part3	*part2	*part1
*staff5	*	*staff4	*staff3	*staff2	*staff1
*I"Continuo	*	*I"Voice	*I"Voice	*I"Voice	*I"Voice
*I'Cont.	*	*I'V	*I'V	*I'V	*I'V
*clefF4	*	*clefF4	*clefGv2	*clefG2	*clefG2
*Trd0c0	*	*	*	*	*
*k[b-e-]	*	*k[b-e-]	*k[b-e-]	*k[b-e-]	*k[b-e-]
*M4/4	*	*M4/4	*M4/4	*M4/4	*M4/4
4GG	.	4G	8B-L	4d	8gL
.	.	.	8cJ	.	8aJ
=2	=2	=2	=2	=2	=2
8GL	.	8GL	4d	4g	4b-
8A-XJ	.	8A-XJ	.	.	.
8GL	n	8GL	4d	4g	4bn
8FJ	.	8FJ	.	.	.
8E-L	6	8E-L	4e-	4g	4cc
8DJ	.	8DJ	.	.	.
8CL	5 2	8CL	4d	4g	4dd
8BBnJ	.	8BBnJ	.	.	.
=3	=3	=3	=3	=3	=3
8CL	.	8CL	8G	4e-	4cc
8E-	.	8E-J	4g	.	.
8G	n_	4G	.	4d	4bn
8GGJ	.	.	8f	.	.
4C;	..	4C;	4e-;	4c;	4cc;
4C	5	4C	4e-	8gL	4cc
.	6	.	.	8aJ	.
=4	=4	=4	=4	=4	=4
4D	6	4D	4f	8b-L	8b-L
.	5	.	.	8B-J	8aJ
4E-	5 3	4E-	4g	8B-L	8gL
.	6 4	.	.	8cJ	8aJ
8DL	6	8DL	8fL	8dL	8b-L
8C	6	8C	8e-J	8e-J	8ccJ
8BB-	.	8BB-	8dL	8fL	4dd
8E-J	7 5	8E-J	8B-J	8gJ	.
=5	=5	=5	=5	=5	=5
8E-L	6 4	8E-L	4f	8a	8ccL
8D	6	8D	.	4b-	8b-J
8E-	6 5	8E-	8g	.	4cc
8FJ	.	8FJ	16fLL	8a	.
.	.	.	16e-JJ	.	.
4BB-;	.	4BB-;	4d;	4f;	4b-;
4E-	5	4E-	8B-L	4e-	8gL
.	6	.	8cJ	.	8aJ
=6	=6	=6	=6	=6	=6
!!linebreak:original
8DL	6	8DL	4d	4f	4b-
8A-X	.	8A-X	.	.	.
8G	n	8G	4d	4g	4bn
8FJ	.	8FJ	.	.	.
8E-L	6	8E-L	4e-	4g	4cc
8D	.	8D	.	.	.
8C	5 2	8C	4d	4g	4dd
8BBnJ	.	8BBnJ	.	.	.
=7	=7	=7	=7	=7	=7
8CL	.	8CL	8G	4e-	4cc
8E-	.	8E-J	4g	.	.
8G	n_	4G	.	4d	4bn
8GGJ	.	.	8f	.	.
4C;	..	4C;	4e-;	4c;	4cc;
4C	5	4C	4e-	8gL	4cc
.	6	.	.	8aJ	.
=8	=8	=8	=8	=8	=8
4D	6	4D	4f	8b-	8b-L
.	5	.	.	4B-	8a
4E-	5 3	4E-	4g	.	8g
.	6 4	.	.	8c	8aJ
8DL	6	8DL	8fL	8dL	8b-L
8C	6	8C	8e-	8e-	8ccJ
8BB-	.	8BB-	8d	8f	4dd
[8E-J	7 5	[8E-J	8B-J	8gJ	.
=9	=9	=9	=9	=9	=9
8E-L]	6 4 2	8E-L]	4f	8a	8ddL
8D	6	8D	.	4b-	8b-J
8E-	6 5	8E-	8gL	.	4cc
8GJ	.	8GJ	16fL	8a	.
.	.	.	16e-JJ	.	.
4BB-;	.	4BB-;	4d;	4f;	4b-;
4AA	6	4AA	[4c	8fL	4cc
.	.	.	.	8e-J	.
=10	=10	=10	=10	=10	=10
!!pagebreak:original
8BB-L	9	8BB-L	8cL]	8dL	4dd
8CJ	7	8CJ	8B-J	8enJ	.
8DL	7 5	8DL	8AL	8fL	8ccL
8EnJ	5	8EnJ	8GJ	8gJ	8b-J
8FL	.	8FL	4.F	4c	4a
8E-XJ	.	8E-XJ	.	.	.
4D	6	4D	.	4f	4b-
.	.	.	8G	.	.
=11	=11	=11	=11	=11	=11
4C	8 6	4C	8A	4e-	8ccL
.	7 5	.	4G	.	8b-J
4D	4	4D	.	8AL	4a
.	#	.	8F#X	8dJ	.
4GG;	.	4GG;	4B-;	4d;	4g;
8GL	n	8GL	4Bn	4d	4g
8FJ	.	8FJ	.	.	.
=12	=12	=12	=12	=12	=12
4E-	6	4E-	4c	8gL	4cc
.	.	.	.	8a-XJ	.
4D	#6\ 4	4D	4d	8gL	4bn
.	3	.	.	8fJ	.
4C	5	4C	8GL	4e-	4cc
.	6	.	8AJ	.	.
[4GG	5 4	4GG	8B-L	8dL	8ddL
.	4 2	.	8AJ	8f#XJ	8ccJ
=13	=13	=13	=13	=13	=13
8GGL]	5 3	8GL	8GL	8g	8b-L
8FFJ	6	8FJ	8AJ	4d	8aJ
8EEnL	7	8EnL	8B-L	.	4g
8AAJ	7 #	8AAJ	8AJ	8c#X	.
4D;	.	4D;	4A;	4d;	4f;
8B-L	.	8B-L	4B-	4d	4f
8AJ	.	8AJ	.	.	.
=14	=14	=14	=14	=14	=14
!!linebreak:original
8GL	.	8GL	8B-L	4d	4b-
8FJ	.	8FJ	8AJ	.	.
8E-L	6	8E-L	4G	4g	4cc
8DJ	.	8DJ	.	.	.
8CnL	6 #4| 2	8CnL	8A	8f#XL	4dd
8BB-J	.	8BB-J	16B-LL	8dJ	.
.	.	.	16cJJ	.	.
8AAL	7 4 2	8AAL	[4d	[4g	8ccL
8GGJ	.	8GGJ	.	.	8b-J
=15	=15	=15	=15	=15	=15
4D	5 4	2D	4.d]	4g]	8aL
.	.	.	.	.	8gJ
4DD	#	.	.	4f#X	4a
.	.	.	8c	.	.
4GG;	.	4GG;	4Bn;	4d;	4g;
=||	=||	=||	=||	=||	=||
*-	*-	*-	*-	*-	*-
!!!system-decoration: s1,s2,s3,s4,s5
